vendor/shopware/storefront/Resources/app/storefront/dist/assets/icon/solid/stack-line2.svg

<svg xmlns="http://www.w3.org/2000/svg" width="16" height="16" viewBox="0 0 16 16">
  <path fill="#758CA3" fill-rule="evenodd" d="M2,6 C1.44771525,6 1,5.55228475 1,5 C1,4.44771525 1.44771525,4 2,4 L14,4 C14.5522847,4 15,4.44771525 15,5 C15,5.55228475 14.5522847,6 14,6 L2,6 Z M2,12 C1.44771525,12 1,11.5522847 1,11 C1,10.4477153 1.44771525,10 2,10 L14,10 C14.5522847,10 15,10.4477153 15,11 C15,11.5522847 14.5522847,12 14,12 L2,12 Z"/>
</svg>

<svg xmlns="http://www.w3.org/2000/svg" width="16" height="16" viewBox="0 0 16 16"><path fill="#758CA3" fill-rule="evenodd" d="M2 6c-.5523 0-1-.4477-1-1s.4477-1 1-1h12c.5523 0 1 .4477 1 1s-.4477 1-1 1H2zm0 6c-.5523 0-1-.4477-1-1s.4477-1 1-1h12c.5523 0 1 .4477 1 1s-.4477 1-1 1H2z"/></svg>
